!!!OTL: You're a Grand Old Flag
!!!COM: unknown
!!!ODT: unknown
!!!YOR: The Holiday Song Book
!!!YOY: 1977
!!!AST: Patriotic song
!!!YEC: Brian Luke, 2001
**kern	**harm
*k[f#]	*k[f#]
*M4/4	*M4/4
*G:	*G:
*>A	*>A
4dd	.
4b	.
=1	=1
2g	I
2g	.
=2	=2
2g	.
4e	.
4d	.
=3	=3
4g	.
2a	.
4f#	.
=4	=4
2g	.
4e	.
4d	.
=5	=5
2g	.
4e	.
4d	.
=6	=6
2g	.
4e	.
4d	.
=7	=7
[1f#	V7
=8	=8
2f#]	.
*>B	*>B
4d	.
4e	.
=9	=9
2f#	.
2g	I
=10	=10
2.a	V7
4d	.
=11	=11
2g	I
2a	V7/vi
=12	=12
2.b	vi
4g	.
=13	=13
4a	V7/V
2b	.
4g	.
=14	=14
4a	.
2b	.
4g	.
=15	=15
[1a	V7
=16	=16
2a]	.
*>A'	*>A'
4dd	.
4b	.
=17	=17
2g	I
2g	.
=18	=18
2g	.
4e	.
4d	.
=19	=19
4g	.
2a	.
4f#	.
=20	=20
2g	.
4f#	.
4f	.
=21	=21
2e	V7/ii
4g#	.
4b	.
=22	=22
2e	.
2b	.
=23	=23
[1a	ii
=24	=24
2a]	.
*>C	*>C
4d	V7
4d	.
=25	=25
2.g	I
4f#	.
=26	=26
2g	.
2b	.
=27	=27
2.a	V7
4g#	.
=28	=28
2a	.
4f#	.
4d	.
=29	=29
4e	V7/V
2a	.
4e	.
=30	=30
2g	ii
2a	V7
=31	=31
[1g	I;
=32	=32
2g]	.
*-	*-
